X:1
T: Gertie Gibb
C:
R:Strathspey
Q: 128
K:D
M:4/4
L:1/16
|:A,2|D4 F3D A4 F3D|DG3 G3B A6 A2|Bd3 c3B A4 F2D2|E3B, C3D E4 A2A,2|
D4 F3D A4 F3D|DG3 G3B A6 A2|Bd3 c3B A4 F2D2|B,3D C3D A,4 D2z2|
A4 F3D B4 G4|B3E ^G3B c4 A4|d3f A3d F3A D4|E3B, C3D E4 A2z2|
A3F D3d B3d G4|B3^G E3d c3d c3e|B3d c3B A3F D4|B,3D C3E D4 D2:|
